svgs/sharp-solid/objects-column.svg

<svg xmlns="http://www.w3.org/2000/svg" viewBox="0 0 448 512"><!--! Font Awesome Pro 6.6.0 by @fontawesome - https://fontawesome.com License - https://fontawesome.com/license (Commercial License) Copyright 2024 Fonticons, Inc. --><path d="M192 32L0 32 0 288l192 0 0-256zM448 224l-192 0 0 256 192 0 0-256zM0 352L0 480l192 0 0-128L0 352zM448 32L256 32l0 128 192 0 0-128z"/></svg>

<svg xmlns="http://www.w3.org/2000/svg" viewBox="0 0 448 512"><!--! Font Awesome Pro 6.4.0 by @fontawesome - https://fontawesome.com License - https://fontawesome.com/license (Commercial License) Copyright 2023 Fonticons, Inc. --><path d="M192 32H0V288H192V32zM448 224H256V480H448V224zM0 352V480H192V352H0zM448 32H256V160H448V32z"/></svg>
